X: 21
T:Rose Tree, The
M:2/4
L:1/8
R:Northern Polka
K:D
fe[|:dB AF/2G/2|A/2B/2A/2F/2 A>B|dd ed/2e/2|fe e/2g/2f/2e/2|!
dB AF/2G/2|A/2B/2A/2F/2 A>B|dd ed/2e/2|1fd df/2e/2:|2fd de|!
|:fe fg|a2 gf|eb ba|be e/2g/2f/2e/2|!
dB AF/2G/2|A/2B/2A/2F/2 A>B|dd ed/2e/2|1fd de:|2fd df/2e/2|]!
